X: 12
T: Kelly of Killane
R: march
Z: John Chambers <jc:trillian.mit.edu>
M: 2/4
L: 1/8
K: G
GB | "G"d2 Bd | "C"g2 fe | "G"d2 BG | "Em"E2 GA | "G"B2 AB | "D7"dc AF | "G"G4- | !fine!G2 :|
Bd | "C"e2 ce | g2 fe | "G"d2 de | d2 Bd | "C"e2 ce | g2 fe | "D7"d4- | !d.C.!d2 |]
%%sep 2 1 500
